src/asset/cabinet/crypto/litecoin.svg

<svg width="72" height="72" fill="none" xmlns="http://www.w3.org/2000/svg"><g filter="url(#filter0_d)"><rect x="16" y="16" width="40" height="40" rx="20" fill="url(#paint0_linear)"/></g><path d="M44 41.89l-.82 3.04H28.61l1.61-6.01-2.22.8.54-2.04 2.05-.74c.09-.03.16-.1.18-.21l2.59-9.66h5.09l-2.05 7.76 2.84-1.04-.54 2.04-2.69.98c-.09.03-.16.1-.18.21l-1.31 4.88H44v-.01z" fill="#fff"/><defs><linearGradient id="paint0_linear" x1="56" y1="16" x2="16" y2="56" gradientUnits="userSpaceOnUse"><stop stop-color="#7AC4F2"/><stop offset="1" stop-color="#619ABE"/></linearGradient><filter id="filter0_d" x="8" y="12" width="56" height="56" filterUnits="userSpaceOnUse" color-interpolation-filters="sRGB"><feFlood flood-opacity="0" result="BackgroundImageFix"/><feColorMatrix in="SourceAlpha" values="0 0 0 0 0 0 0 0 0 0 0 0 0 0 0 0 0 0 127 0"/><feOffset dy="4"/><feGaussianBlur stdDeviation="4"/><feColorMatrix values="0 0 0 0 0.486275 0 0 0 0 0.803922 0 0 0 0 1 0 0 0 0.3 0"/><feBlend in2="BackgroundImageFix" result="effect1_dropShadow"/><feBlend in="SourceGraphic" in2="effect1_dropShadow" result="shape"/></filter></defs></svg>

<svg width="72" height="72" viewBox="0 0 72 72" fill="none" xmlns="http://www.w3.org/2000/svg">
<g filter="url(#filter0_d)">
<rect x="16" y="16" width="40" height="40" rx="20" fill="url(#paint0_linear)"/>
</g>
<path d="M44 41.89L43.18 44.93H28.61L30.22 38.92L28 39.72L28.54 37.68L30.59 36.94C30.68 36.91 30.75 36.84 30.77 36.73L33.36 27.07H38.45L36.4 34.83L39.24 33.79L38.7 35.83L36.01 36.81C35.92 36.84 35.85 36.91 35.83 37.02L34.52 41.9H44V41.89Z" fill="white"/>
<defs>
<filter id="filter0_d" x="8" y="12" width="56" height="56" filterUnits="userSpaceOnUse" color-interpolation-filters="sRGB">
<feFlood flood-opacity="0" result="BackgroundImageFix"/>
<feColorMatrix in="SourceAlpha" type="matrix" values="0 0 0 0 0 0 0 0 0 0 0 0 0 0 0 0 0 0 127 0"/>
<feOffset dy="4"/>
<feGaussianBlur stdDeviation="4"/>
<feColorMatrix type="matrix" values="0 0 0 0 0.486275 0 0 0 0 0.803922 0 0 0 0 1 0 0 0 0.3 0"/>
<feBlend mode="normal" in2="BackgroundImageFix" result="effect1_dropShadow"/>
<feBlend mode="normal" in="SourceGraphic" in2="effect1_dropShadow" result="shape"/>
</filter>
<linearGradient id="paint0_linear" x1="56" y1="16" x2="16" y2="56" gradientUnits="userSpaceOnUse">
<stop stop-color="#7AC4F2"/>
<stop offset="1" stop-color="#619ABE"/>
</linearGradient>
</defs>
</svg>
